X:1
T:Lackstrm II
R:Polska
D:Sgskra - Orm
O:Lackstrm, Smland
M:3/4
L:1/16
K:Dm
A |: d^cde fefg a3f | d^cdf A8 | GBdB DFAF E3E | F3F FEDF E3E |
F2AF E2AE D2AD | E2DE ^c7 A=Bc | d^cde fefg a3f |[1 d^cdf agec d3A :|
[2 d^cdf agec d3e |: f3f agfe d^cde |f2^g2 a3a a2=g2 | f3f agfe d^cde | 
f2a2 c6 e | f3f agfe d^cde | f2a2 d'4 a3a | bagf agfe gfed | fed^c d8 :|
